icon-themes/breeze_svg/cmd/32/symbolshapes.cloud.svg

<svg viewBox="0 0 32 32" xmlns="http://www.w3.org/2000/svg"><path d="m16 5.5c-2.159088 0-3.969909 1.5338313-4.40625 3.5625-.702848-.3492521-1.505664-.5625-2.34375-.5625-2.8994949 0-5.25 2.350505-5.25 5.25 0 1.812185.900366 3.415912 2.296875 4.359375-1.3631343.773292-2.296875 2.211475-2.296875 3.890625 0 2.485281 2.0147187 4.5 4.5 4.5 1.1585797 0 2.202384-.452634 3-1.171875.797614.71924 1.841424 1.171875 3 1.171875 2.159082 0 3.96991-1.533837 4.40625-3.5625.702848.349253 1.505664.5625 2.34375.5625 2.899496 0 5.25-2.350504 5.25-5.25 0-1.034636-.327024-1.999522-.84375-2.8125 1.392686-.764994 2.34375-2.23635 2.34375-3.9375 0-2.4852813-2.014719-4.5-4.5-4.5-1.31391 0-2.50543.5550733-3.328125 1.453125-.638371-1.7086173-2.240604-2.953125-4.171875-2.953125z" fill="#4d4d4d"/></svg>

<svg xmlns="http://www.w3.org/2000/svg" viewBox="0 0 32 32">
 <path 
     style="fill:#4d4d4d" 
     d="M 16 5.5 C 13.840912 5.5 12.030091 7.0338313 11.59375 9.0625 C 10.890902 8.7132479 10.088086 8.5 9.25 8.5 C 6.3505051 8.5 4 10.850505 4 13.75 C 4 15.562185 4.900366 17.165912 6.296875 18.109375 C 4.9337407 18.882667 4 20.32085 4 22 C 4 24.485281 6.0147187 26.5 8.5 26.5 C 9.6585797 26.5 10.702384 26.047366 11.5 25.328125 C 12.297614 26.047365 13.341424 26.5 14.5 26.5 C 16.659082 26.5 18.46991 24.966163 18.90625 22.9375 C 19.609098 23.286753 20.411914 23.5 21.25 23.5 C 24.149496 23.5 26.5 21.149496 26.5 18.25 C 26.5 17.215364 26.172976 16.250478 25.65625 15.4375 C 27.048936 14.672506 28 13.20115 28 11.5 C 28 9.0147187 25.985281 7 23.5 7 C 22.18609 7 20.99457 7.5550733 20.171875 8.453125 C 19.533504 6.7445077 17.931271 5.5 16 5.5 z "
     />
</svg>
